!!!COM: Hummel, Johann Nepomuk
!!!CDT: 1778/11/14/-1837/10/17/
!!!OTL: Prelude in F Major, Op. 67, No. 23
!!!OPS: Op. 67
!!!ONM: No. 23
!!!OMD: Allegro con fuoco
!!!ODT: 1815///
!!!AIN: piano
**kern	**kern	**dynam
*staff2	*staff1	*staff1/2
*Ipiano	*Ipiano	*Ipiano
*clefF4	*clefG2	*clefG2
*k[b-]	*k[b-]	*k[b-]
*F:	*F:	*F:
*met(C)	*met(C)	*met(C)
*M4/4	*M4/4	*M4/4
*MM144	*MM144	*MM144
=1-	=1-	=1-
*	*^	*
12FF/L	2r	2.A\	f
12AA/	.	.	.
12C/J	.	.	.
12F\L	.	.	.
12E\	.	.	.
12F\J	.	.	.
12D/L	[2f^/	.	.
12C#/	.	.	.
12D/J	.	.	.
12BB-/L	.	(4d\	.
12AA/	.	.	.
12BB-/J	.	.	.
=2	=2	=2	=2
12GG/L	4f/]	2.B-\)	.
12BB-/	.	.	.
12D/J	.	.	.
12G\L	&(4e'/&)	.	.
12F#\	.	.	.
12G\J	.	.	.
12E\L	[2g^/	.	.
12D#\	.	.	.
12E\J	.	.	.
12C/L	.	(4e\	.
12BBn/	.	.	.
12C/J	.	.	.
=3	=3	=3	=3
12AA/L	4g/]	2.c\)	.
12C/	.	.	.
12E/J	.	.	.
12A\L	&(4f/&)	.	.
12G#\	.	.	.
12A\J	.	.	.
12F\L	2a^/	.	.
12E\	.	.	.
12F\J	.	.	.
12D/L	.	(4f\	.
12C#/	.	.	.
12D/J	.	.	.
*	*v	*v	*
=4	=4	=4
(12BB-\L	4d'/)	.
12D\	.	.
12G\J	.	.
4B-''\)	(12dd\L	.
.	12g\	.
.	12b-\J	.
(12C\L	4e'/)	.
12E\	.	.
12A\J	.	.
4c''\)	(12ee\L	.
.	12a\	.
.	12cc\J	.
=5	=5	=5
(12D\L	4f'/)	.
12F\	.	.
12B-\J	.	.
4d''\)	(12ff\L	.
.	12b-\	.
.	12dd\J	.
(12E\L	4g'/)	.
12G\	.	.
12c\J	.	.
4e''\)	(12gg\L	.
.	12cc\	.
.	12ee\J	.
=6	=6	=6
(12F\L	4a'/)	.
12A\	.	.
12d\J	.	.
4f''\)	(12aa\L	.
.	12dd\	.
.	12ff\J	.
(12G\L	4b-'\)	.
12B-\	.	.
12e\J	.	.
4g''\)	(12bb-\L	.
.	12ee\	.
.	12gg\J	.
=7	=7	=7
*	*^	*
1r	12r	12a'\)	<
.	(12cc/L	6r	.
.	12ccc/J)	.	.
.	12r	12b-'\	.
.	(12dd/L	6r	.
.	12ddd/J)	.	.
.	12r	12cc'\	.
.	(12ee/L	6r	.
.	12eee/J)	.	.
.	12r	12dd'\	.
.	(12ff/L	6r	.
.	12fff/J)	.	.
=8	=8	=8	=8
*	*8va	*8va	*
1r	12r	12ee'\	.
.	(12gg/L	6r	.
.	12ggg/J)	.	.
.	12r	12ff'\	.
.	(12aa/L	6r	.
.	12aaa/J)	.	.
.	12r	12gg'\	.
.	(12bb-/L	6r	.
.	12bbb-/J)	.	.
.	12r	12aa'\	.
.	(12ccc/L	6r	.
.	12cccc/J)	.	.
=9	=9	=9	=9
*^	*	*	*
4r	2r	12r	4bb-'\	.
.	.	12ddd/L	.	.
.	.	12dddd/J	.	.
*	*	*X8va	*X8va	*
4r	.	4r	4r	.
2CC/ 2C/	4EE\ 4GG\	2r	2G/ 2B-/ 2c/ 2e/	f
.	4r	.	.	.
*	*	*v	*v	*
=10	=10	=10	=10
1FFF 1FF	4AAA/ 4CC/	1F 1A 1c 1f	.
.	2.r	.	.
*v	*v	*	*
==	==	==
*-	*-	*-
!!!ENC: Craig Stuart Sapp
!!!EED: 2008/06/12/
!!!EEV: 2008/06/12/
!!!YEC: Copyright 2008 by Craig Stuart Sapp
!!!YEN: United States of America
